docs/img/tools/Bootstrap.svg

<?xml version="1.0" encoding="UTF-8"?>
<svg width="20px" height="20px" viewBox="0 0 20 20" version="1.1" xmlns="http://www.w3.org/2000/svg" xmlns:xlink="http://www.w3.org/1999/xlink">
    <!-- Generator: Sketch 60 (88103) - https://sketch.com -->
    <title>Bootstrap</title>
    <desc>Created with Sketch.</desc>
    <g id="Symbols" stroke="none" stroke-width="1" fill="none" fill-rule="evenodd">
        <g id="Icons---Mobiquity" transform="translate(-410.000000, 0.000000)" fill-rule="nonzero">
            <g id="Bootstrap" transform="translate(410.000000, 0.000000)">
                <path d="M0,17.4211719 C0,18.8455469 1.15460937,20 2.57882813,20 L17.4210938,20 C18.8455469,20 20,18.8453906 20,17.4211719 L20,2.57890625 C20,1.15445312 18.8453906,0 17.4211719,0 L2.57890625,0 C1.15445312,0 0,1.15460937 0,2.57882813 L0,17.4210938 L0,17.4211719 Z" id="Path" fill="#563D7C"></path>
                <path d="M8.29359375,8.84671875 L8.29359375,6.01445313 L10.7866406,6.01445313 C11.0241406,6.01445313 11.2530469,6.03421875 11.4735156,6.07382813 C11.6939844,6.11335937 11.8890625,6.18398437 12.0586719,6.28578125 C12.2282031,6.38757812 12.3639063,6.52890625 12.4657031,6.70976562 C12.5674219,6.89070312 12.6183594,7.1225 12.6183594,7.40507812 C12.6183594,7.91390625 12.4657031,8.28140625 12.1603906,8.5075 C11.8551563,8.73367187 11.4650781,8.84671875 10.9901563,8.84671875 L8.29359375,8.84671875 L8.29359375,8.84671875 Z M5.63085938,3.9453125 L5.63085938,16.0546875 L11.4989844,16.0546875 C12.0417188,16.0546875 12.5703125,15.986875 13.0847656,15.8511719 C13.5992188,15.7154688 14.0571094,15.5063281 14.4585156,15.2236719 C14.8598438,14.9410156 15.1792969,14.5763281 15.4167188,14.1297656 C15.6542188,13.683125 15.7728906,13.1545312 15.7728906,12.5439844 C15.7728906,11.7864062 15.5891406,11.1391406 15.2217188,10.6021094 C14.8542188,10.065 14.2973438,9.6890625 13.5510938,9.47421875 C14.0938281,9.21421875 14.50375,8.880625 14.7807813,8.47359375 C15.0577344,8.0665625 15.19625,7.5578125 15.19625,6.9471875 C15.19625,6.381875 15.1029688,5.90703125 14.9164063,5.52257812 C14.7298438,5.13820313 14.4669531,4.83007812 14.1277344,4.59828125 C13.7885938,4.36648437 13.3815625,4.1996875 12.9066406,4.09796875 C12.4317969,3.99617188 11.9060156,3.9453125 11.329375,3.9453125 L5.63085938,3.9453125 Z M8.29359375,13.9855469 L8.29359375,10.6614062 L11.1936719,10.6614062 C11.7703125,10.6614062 12.2339063,10.7942187 12.5844531,11.06 C12.9349219,11.3257031 13.1102344,11.7694531 13.1102344,12.3913281 C13.1102344,12.7079687 13.0564844,12.9679687 12.9490625,13.1714844 C12.8416406,13.375 12.6975,13.5361719 12.5165625,13.6548437 C12.3357031,13.7735937 12.1264844,13.8583594 11.8890625,13.9092969 C11.6515625,13.9600781 11.4028906,13.9855469 11.1428125,13.9855469 L8.29359375,13.9855469 L8.29359375,13.9855469 Z" id="Shape" fill="#FFFFFF"></path>
            </g>
        </g>
    </g>
</svg>

<svg width="20" height="20" xmlns="http://www.w3.org/2000/svg"><g fill-rule="nonzero" fill="none"><path d="M0 17.421A2.579 2.579 0 002.579 20H17.42A2.579 2.579 0 0020 17.421V2.58A2.579 2.579 0 0017.421 0H2.58A2.579 2.579 0 000 2.579V17.42z" fill="#563D7C"/><path d="M8.294 8.847V6.014h2.493c.237 0 .466.02.687.06.22.04.415.11.585.212.17.102.305.243.407.424.101.18.152.412.152.695 0 .509-.152.876-.458 1.103-.305.226-.695.339-1.17.339H8.294zM5.63 3.945v12.11h5.868c.543 0 1.071-.068 1.586-.204a4.241 4.241 0 001.374-.627c.4-.283.72-.648.958-1.094.237-.447.356-.975.356-1.586 0-.758-.184-1.405-.551-1.942-.368-.537-.925-.913-1.67-1.128.542-.26.952-.593 1.229-1 .277-.407.415-.916.415-1.527 0-.565-.093-1.04-.28-1.424a2.327 2.327 0 00-.788-.925 3.404 3.404 0 00-1.221-.5c-.475-.102-1.001-.153-1.578-.153H5.631zm2.663 10.04v-3.324h2.9c.576 0 1.04.133 1.39.399.35.266.526.71.526 1.331 0 .317-.054.577-.16.78a1.28 1.28 0 01-.433.484c-.181.119-.39.203-.628.254a3.56 3.56 0 01-.746.077h-2.85z" fill="#FFF"/></g></svg>
